src/assets/filled/ArrowSquareDown.svg

<?xml version="1.0" encoding="UTF-8"?>
<svg width="24" height="24" viewBox="0 0 24 24" xmlns="http://www.w3.org/2000/svg">
 <path d="m16.19 2h-8.38c-3.64 0-5.81 2.17-5.81 5.81v8.37c0 3.65 2.17 5.82 5.81 5.82h8.37c3.64 0 5.81-2.17 5.81-5.81v-8.38c0.01-3.64-2.16-5.81-5.8-5.81zm-0.13 9.17-3.53 3.53c-0.15 0.15-0.34 0.22-0.53 0.22s-0.38-0.07-0.53-0.22l-3.53-3.53c-0.29-0.29-0.29-0.77 0-1.06s0.77-0.29 1.06 0l3 3 3-3c0.29-0.29 0.77-0.29 1.06 0s0.29 0.76 0 1.06z"/>
</svg>

<svg width="24" height="24" viewBox="0 0 24 24"  xmlns="http://www.w3.org/2000/svg">
<path d="M16.19 2H7.81C4.17 2 2 4.17 2 7.81V16.18C2 19.83 4.17 22 7.81 22H16.18C19.82 22 21.99 19.83 21.99 16.19V7.81C22 4.17 19.83 2 16.19 2ZM16.06 11.17L12.53 14.7C12.38 14.85 12.19 14.92 12 14.92C11.81 14.92 11.62 14.85 11.47 14.7L7.94 11.17C7.65 10.88 7.65 10.4 7.94 10.11C8.23 9.82 8.71 9.82 9 10.11L12 13.11L15 10.11C15.29 9.82 15.77 9.82 16.06 10.11C16.35 10.4 16.35 10.87 16.06 11.17Z" />
</svg>
